img/icon-personal-account-320.svg

<svg width="9" height="9" fill="none" xmlns="http://www.w3.org/2000/svg"><path d="M3.545 6.295L4.25 7l2.5-2.5L4.25 2l-.705.705L4.835 4H0v1h4.835l-1.29 1.295zM8 0H1a1 1 0 00-1 1v2h1V1h7v7H1V6H0v2a1 1 0 001 1h7c.55 0 1-.45 1-1V1c0-.55-.45-1-1-1z" fill="#fff"/></svg>

<svg width="9" height="9" viewBox="0 0 9 9" fill="none" xmlns="http://www.w3.org/2000/svg">
<path d="M3.545 6.295L4.25 7L6.75 4.5L4.25 2L3.545 2.705L4.835 4H0V5H4.835L3.545 6.295ZM8 0H1C0.445 0 0 0.45 0 1V3H1V1H8V8H1V6H0V8C0 8.55 0.445 9 1 9H8C8.55 9 9 8.55 9 8V1C9 0.45 8.55 0 8 0Z" fill="white"/>
</svg>
